X: 1195
T: Leave My Way
M:C|
L:1/8
R:Reel
B:O'Neill's 1195
N:Collected by Early
Z:Transcribed by Trish O'Neil
K:G
B,D|GFGB A2(Bc)|dBcA BGAF|DGGBA2(dc)|BGAFG2(TFD)|
{A}GFGBA2(3ABc|d2gd BGAF|DGGB ABcA|(3Bcd AFG2||
z2|(Tgfg)ef2fd|e2(fg) afdf|g2gef2df|egfag2(Bd)|
g2bgf2af|ed (3efg afdf|gabg ecAc|BGAFG2||


